**kern	**kern	**dynam
*part1	*part1	*part1
*staff2	*staff1	*
*I"Piano	*	*
*clefF4	*clefG2	*
*k[]	*k[]	*
=1	=1	=1
(2GGG 2GG	(2G 2c 2e 2g	p
2GGG#X 2GG#X	2Fn 2B 2dn 2fn	.
=	=	=
*^	*	*
2E	2AAA 2AA	2A 2c#X 2e	.
2E	2GGGn) 2GGn	2B-X) 2c# 2e	.
=	=	=	=
1E	[1FFF [1FF	1A 1c#X 1e	fp
=	=	=	=
(2D 2A	1FFF] 1FF]	2.d	.
2A-X) 2Bn	.	.	.
.	.	4d	.
*v	*v	*	*
=	=	=
2EEE 2EE	2cn 2g 2ccn	.
((2FFF 2FF	2c 2an 2cc	.
=	=	=
*	*^	*
2EEE)) 2EE	2c 2g 2cc	2ryy	.
((2FFF 2FF	(6a	2c 2f	.
.	6dd	.	.
.	6cc)	.	.
=	=	=	=
[1GGG)) [1GG	(2cc	1c 1e 1g	.
.	[2g)	.	.
=	=	=	=
1GGG] 1GG]	2.g]	(2.A 2.c	pp
.	4g	4B) 4d	.
*	*v	*v	*
=	=	=
1CC; 1GG	1G; 1c 1e 1g	.
==	==	==
*-	*-	*-
!!!system-decoration: {(s1,s2)}
